flaticon/social-media/vimeo.svg

<svg xmlns="http://www.w3.org/2000/svg" width="32" height="32" viewBox="0 0 24 24">
    <path d="M 23.378906 2.5625 C 22.253906 1.121094 19.851562 1.359375 19.128906 1.480469 C 18.003906 1.679688 14.476562 3.324219 13.234375 7.054688 L 13.074219 7.617188 L 13.714844 7.617188 C 14.917969 7.496094 15.558594 7.617188 15.878906 7.9375 C 16.160156 8.21875 16.28125 8.738281 16.199219 9.582031 C 16.121094 10.503906 15.640625 11.546875 15.15625 12.429688 L 15.117188 12.507812 C 14.757812 13.191406 14.074219 14.472656 13.394531 14.554688 C 13.113281 14.59375 12.832031 14.433594 12.550781 14.113281 C 11.628906 13.109375 11.429688 11.304688 11.269531 9.699219 C 11.1875 9.140625 11.148438 8.660156 11.066406 8.175781 L 10.988281 7.734375 C 10.828125 6.734375 10.625 5.652344 10.347656 4.6875 C 10.023438 3.6875 9.304688 2.402344 8.300781 2.121094 C 7.339844 1.839844 6.136719 2.203125 5.375 2.683594 C 4.011719 3.527344 2.847656 4.566406 1.722656 5.570312 C 1.285156 6.011719 0.800781 6.453125 0.320312 6.855469 C 0.121094 7.015625 0 7.253906 0 7.496094 C 0 7.65625 0.0820312 7.816406 0.160156 7.976562 C 0.199219 8.015625 0.199219 8.058594 0.242188 8.097656 C 0.402344 8.378906 0.640625 8.777344 1.164062 8.859375 C 1.683594 8.9375 2.207031 8.820312 2.648438 8.660156 C 3.410156 8.417969 3.730469 8.335938 4.050781 8.898438 C 4.332031 9.421875 4.53125 10.023438 4.691406 10.625 C 4.773438 10.902344 4.851562 11.226562 4.972656 11.503906 C 5.375 12.707031 5.695312 13.992188 6.054688 15.394531 L 6.175781 15.917969 C 6.738281 18.28125 7.539062 21.53125 9.585938 22.414062 C 9.90625 22.574219 10.226562 22.613281 10.585938 22.613281 C 11.589844 22.613281 12.671875 22.132812 13.273438 21.769531 C 15.640625 20.328125 17.324219 18.324219 18.566406 16.679688 C 21.933594 12.066406 23.660156 6.972656 23.898438 5.652344 C 24.140625 4.328125 23.941406 3.285156 23.378906 2.5625 Z M 23.097656 5.53125 C 22.855469 6.773438 21.132812 11.785156 17.925781 16.195312 C 16.722656 17.761719 15.117188 19.726562 12.832031 21.050781 C 12.109375 21.492188 10.707031 22.011719 9.863281 21.652344 C 8.179688 20.929688 7.457031 17.921875 6.9375 15.714844 L 6.816406 15.195312 C 6.496094 13.792969 6.175781 12.507812 5.734375 11.265625 C 5.652344 10.984375 5.574219 10.703125 5.492188 10.421875 C 5.332031 9.820312 5.132812 9.140625 4.773438 8.539062 C 4.371094 7.894531 3.929688 7.695312 3.449219 7.695312 C 3.085938 7.695312 2.726562 7.816406 2.40625 7.855469 C 2.003906 7.976562 1.644531 8.097656 1.285156 8.058594 C 1.164062 8.058594 0.800781 7.574219 0.761719 7.496094 C 1.285156 7.09375 1.804688 6.613281 2.285156 6.171875 C 3.410156 5.167969 4.53125 4.167969 5.816406 3.445312 C 6.417969 3.085938 7.378906 2.761719 8.101562 2.964844 C 8.742188 3.125 9.34375 4.085938 9.625 4.96875 C 9.90625 5.851562 10.066406 6.933594 10.226562 7.894531 L 10.304688 8.335938 C 10.347656 8.777344 10.425781 9.261719 10.464844 9.78125 C 10.625 11.503906 10.828125 13.46875 11.949219 14.671875 C 12.429688 15.195312 12.953125 15.433594 13.472656 15.355469 C 14.554688 15.195312 15.320312 13.792969 15.800781 12.867188 L 15.839844 12.789062 C 16.320312 11.867188 16.882812 10.742188 16.960938 9.660156 C 17.042969 8.578125 16.882812 7.855469 16.402344 7.375 C 15.878906 6.855469 15.078125 6.734375 14.234375 6.773438 C 15.558594 3.566406 18.648438 2.402344 19.25 2.324219 C 19.851562 2.203125 21.894531 2 22.738281 3.085938 C 23.179688 3.644531 23.296875 4.40625 23.097656 5.53125 Z M 23.097656 5.53125"/>
</svg>

<svg xmlns="http://www.w3.org/2000/svg" width="32" height="32" viewBox="0 0 24 24">
    <path d="M23.379 2.563c-1.125-1.442-3.527-1.204-4.25-1.083-1.125.2-4.652 1.844-5.895 5.575l-.16.562h.64c1.204-.12 1.845 0 2.165.32.281.282.402.801.32 1.645-.078.922-.558 1.965-1.043 2.848l-.039.078c-.36.683-1.043 1.965-1.722 2.047-.282.039-.563-.121-.844-.442-.922-1.004-1.121-2.808-1.281-4.414-.082-.558-.122-1.039-.204-1.523l-.078-.442c-.16-1-.363-2.082-.64-3.046-.325-1-1.043-2.286-2.047-2.567-.961-.281-2.164.082-2.926.563-1.363.843-2.527 1.882-3.652 2.886C1.285 6.012.8 6.453.32 6.855c-.199.16-.32.399-.32.641 0 .16.082.32.16.48.04.04.04.083.082.122.16.28.399.68.922.761.52.079 1.043-.039 1.484-.199.762-.242 1.082-.324 1.403.238.281.524.48 1.125.64 1.727.082.277.16.602.282.879.402 1.203.722 2.488 1.082 3.89l.12.524c.563 2.363 1.364 5.613 3.41 6.496.321.16.642.2 1 .2 1.005 0 2.087-.481 2.688-.844 2.368-1.442 4.051-3.446 5.293-5.09 3.368-4.614 5.094-9.707 5.332-11.028.243-1.324.043-2.367-.52-3.09zm-.281 2.968c-.243 1.242-1.965 6.254-5.172 10.664-1.203 1.567-2.809 3.532-5.094 4.856-.723.441-2.125.96-2.969.601-1.683-.722-2.406-3.73-2.925-5.937l-.122-.52c-.32-1.402-.64-2.687-1.082-3.93-.082-.28-.16-.562-.242-.843-.16-.602-.36-1.281-.719-1.883-.402-.644-.843-.844-1.324-.844-.363 0-.722.121-1.043.16-.402.122-.761.243-1.12.204-.122 0-.485-.485-.524-.563.523-.402 1.043-.883 1.523-1.324C3.41 5.168 4.531 4.168 5.816 3.445c.602-.36 1.563-.683 2.286-.48.64.16 1.242 1.12 1.523 2.004.281.883.441 1.965.602 2.926l.078.44c.043.442.12.927.16 1.446.16 1.723.363 3.688 1.484 4.89.48.524 1.004.763 1.524.684 1.082-.16 1.847-1.562 2.328-2.488l.039-.078c.48-.922 1.043-2.047 1.12-3.129.083-1.082-.077-1.805-.558-2.285-.523-.52-1.324-.64-2.168-.602 1.325-3.207 4.414-4.37 5.016-4.449.602-.12 2.645-.324 3.488.762.442.559.559 1.32.36 2.445zm0 0"/>
</svg>
